fa/person-walking-with-cane.svg

<svg xmlns="http://www.w3.org/2000/svg" viewBox="0 0 448 512" height="1em" width="1em">
  <path d="M445.2 486.1 327.9 313.5c-3.002 4.529-6.646 8.652-11.12 12-4.414 3.318-9.299 5.689-14.43 7.307l116.4 171.3a15.99 15.99 0 0 0 13.22 7.008c3.125 0 6.247-.898 8.997-2.773C448.3 504.2 450.2 494.3 445.2 486.1zm-302.1-391c26.51 0 48.01-21.49 48.01-47.1S170.5 0 144 0 96 21.49 96 48s21.5 47.1 47.1 47.1zm-47.09 253L64.98 472.3c-4.312 17.16 6.125 34.53 23.28 38.81 2.6.59 5.22.89 7.78.89 14.34 0 27.38-9.703 31-24.23l22.04-88.18-53.07-53.09v1.6zm217.59-79.3-76.78-102.4C218.8 142.3 190.1 128 160 128l-24.4-.9c-36.59 0-69.5 20.33-85.87 53.06L3.387 273.7c-7.905 15.8-1.5 35 14.313 42.9a31.825 31.825 0 0 0 14.28 3.375c11.75 0 23.03-6.469 28.66-17.69l35.38-70.76v56.45c0 8.484 3.375 16.62 9.375 22.63l86.63 86.63v82.75c0 17.67 14.31 32 32 32 17.69 0 32-14.33 32-32v-82.75c0-17.09-6.656-33.16-18.75-45.25L192 306.8v-93.5l70.38 93.88c10.59 14.11 30.62 16.98 44.78 6.406C321.3 303 324.2 282.9 313.6 268.8z"/>
</svg>

<svg xmlns="http://www.w3.org/2000/svg" viewBox="0 0 448 512" height="1em" width="1em">
  <path d="M445.2 486.1l-117.3-172.6c-3.002 4.529-6.646 8.652-11.12 12c-4.414 3.318-9.299 5.689-14.43 7.307l116.4 171.3c3.094 4.547 8.127 7.008 13.22 7.008c3.125 0 6.247-.8984 8.997-2.773C448.3 504.2 450.2 494.3 445.2 486.1zM143.1 95.1c26.51 0 48.01-21.49 48.01-47.1S170.5 0 144 0S96 21.49 96 48S117.5 95.1 143.1 95.1zM96.01 348.1l-31.03 124.2c-4.312 17.16 6.125 34.53 23.28 38.81C90.86 511.7 93.48 512 96.04 512c14.34 0 27.38-9.703 31-24.23l22.04-88.18L96.01 346.5V348.1zM313.6 268.8l-76.78-102.4C218.8 142.3 190.1 128 160 128L135.6 127.1c-36.59 0-69.5 20.33-85.87 53.06L3.387 273.7C-4.518 289.5 1.887 308.7 17.7 316.6c4.594 2.297 9.469 3.375 14.28 3.375c11.75 0 23.03-6.469 28.66-17.69l35.38-70.76v56.45c0 8.484 3.375 16.62 9.375 22.63l86.63 86.63v82.75c0 17.67 14.31 32 32 32c17.69 0 32-14.33 32-32v-82.75c0-17.09-6.656-33.16-18.75-45.25L192 306.8V213.3l70.38 93.88c10.59 14.11 30.62 16.98 44.78 6.406C321.3 303 324.2 282.9 313.6 268.8z"/>
</svg>
